X:1
T:Title
%%score { ( 1 3 ) | ( 2 4 ) }
L:1/8
M:6/8
K:Ab
V:1 treble nm="Grand Piano"
V:3 treble 
V:2 bass 
V:4 bass 
V:1
 z3 z2[Q:1/4=100] [CE] | [Ec]2 [Ec] [Fd][Ec][DB] | [CA]2 [DF] [CE]2 [CE] | FG[EA] [Ed]2 [Ec] | %4
[M:5/8] c2 B B2 |[M:1/8] B |[M:3/4] B2 c e2 d | c2 B A2 E | FG [EA] [Ed]2 [Ec] | [Ec]2 [DB] [CA]3 | %10
 c2 BB A2 | [Ge][Ge] [Gd]d c2 | F[EG] [FA]E [Ed][Ec] | B6 | c2 e[Ae] [Gd]2 | Ed dd c2 | z2 z .c3 | %17
[M:5/8] [CEA]-[CEA]- [CEA]3 |] %18
V:2
 z3 z2 [A,,A,] | [A,,A,]2 [A,,A,] [A,,A,]2 [A,,E,] | [A,,E,]2 [A,,A,] [A,,A,]2 [A,,A,] | %3
 [D,A,D]2 [C,A,] [B,,G,]2 [A,,A,] |[M:5/8] [F,A,=D]2 [F,A,D] [E,G,E]2 |[M:1/8] [E,G,E] | %6
[M:3/4] [E,G,E]2 [E,A,E] [E,CE]2 [E,B,E] | [A,E]2 [A,DE] [A,CE]2 [C,A,] | %8
 [D,A,D]2 [C,A,] [B,,G,]2 [A,,A,] | [E,A,]2 [E,G,] [A,,A,]3 | %10
 [A,EA]2 [A,DE][K:bass][A,DE] [A,CE]2 | [E,B,][E,B,] [E,B,][A,B,E] [A,E]2 | %12
 [D,A,D][D,A,] [D,A,][C,A,] [B,,G,][A,,A,] | [E,G,E]6 | [A,E]2 [A,CE][E,C] [E,B,]2 | %15
 [G,B,][G,B,E] [G,B,E][A,B,E] [A,E]2 | z2 z [A,E] z2 |[M:5/8] A,,-A,,- A,,3 |] %18
V:3
 x6 | x6 | x6 | x6 |[M:5/8] x5 |[M:1/8] x |[M:3/4] x6 | x6 | x6 | x6 | x6 | x6 | x6 | x6 | x6 | %15
 x6 | [FB][Fc] .[Fd]2 A[DGB] |[M:5/8] x5 |] %18
V:4
 x6 | x6 | x6 | x6 |[M:5/8] x5 |[M:1/8] x |[M:3/4] x6 | x6 | x6 | x6 | x3[K:bass] x3 | x6 | x6 | %13
 x6 | x6 | x6 | [D,A,][D,A,] [D,A,]E,- [E,E]E, |[M:5/8] x5 |] %18

